assets/img/icons/duotone-icons/Electric/Fridge.svg

<?xml version="1.0" encoding="UTF-8"?>
<svg width="24px" height="24px" viewBox="0 0 24 24" version="1.1" xmlns="http://www.w3.org/2000/svg" xmlns:xlink="http://www.w3.org/1999/xlink">
    <!-- Generator: Sketch 52.2 (67145) - http://www.bohemiancoding.com/sketch -->
    <title>Stockholm-icons / Electric / Fridge</title>
    <desc>Created with Sketch.</desc>
    <g id="Stockholm-icons-/-Electric-/-Fridge" stroke="none" stroke-width="1" fill="none" fill-rule="evenodd">
        <rect id="bound" x="0" y="0" width="24" height="24"></rect>
        <path d="M7,10 L7,16 C7,16.5522847 7.44771525,17 8,17 C8.55228475,17 9,16.5522847 9,16 L9,10 L19,10 L19,22 C19,22.5522847 18.5522847,23 18,23 L6,23 C5.44771525,23 5,22.5522847 5,22 L5,10 L7,10 Z M7,8 L5,8 L5,2 C5,1.44771525 5.44771525,1 6,1 L18,1 C18.5522847,1 19,1.44771525 19,2 L19,8 L9,8 L9,5 C9,4.44771525 8.55228475,4 8,4 C7.44771525,4 7,4.44771525 7,5 L7,8 Z" id="Combined-Shape" fill="#335EEA"></path>
    </g>
</svg>

<svg width="24" height="24" viewBox="0 0 24 24" xmlns="http://www.w3.org/2000/svg"><g fill="none" fill-rule="evenodd"><path d="M0 0h24v24H0z"/><path d="M7 10v6a1 1 0 002 0v-6h10v12a1 1 0 01-1 1H6a1 1 0 01-1-1V10h2zm0-2H5V2a1 1 0 011-1h12a1 1 0 011 1v6H9V5a1 1 0 10-2 0v3z" fill="#335EEA"/></g></svg>
